src/images/assets/instagram-white.svg

<svg xmlns="http://www.w3.org/2000/svg" xmlns:xlink="http://www.w3.org/1999/xlink" width="200" zoomAndPan="magnify" viewBox="0 0 150 149.999998" height="200" preserveAspectRatio="xMidYMid meet" version="1.0"><defs><clipPath id="660b01b242"><path d="M 1.28125 0 L 149 0 L 149 147.75 L 1.28125 147.75 Z M 1.28125 0 " clip-rule="nonzero"/></clipPath></defs><g clip-path="url(#660b01b242)"><path fill="#e5e5e5" d="M 75 0 C 34.351562 0 1.285156 33.070312 1.285156 73.714844 C 1.285156 114.363281 34.351562 147.433594 75 147.433594 C 115.644531 147.433594 148.714844 114.363281 148.714844 73.714844 C 148.714844 33.070312 115.644531 0 75 0 Z M 75 143.519531 C 36.511719 143.519531 5.199219 112.203125 5.199219 73.714844 C 5.199219 35.230469 36.511719 3.914062 75 3.914062 C 113.488281 3.914062 144.800781 35.230469 144.800781 73.714844 C 144.800781 112.203125 113.488281 143.519531 75 143.519531 Z M 75 143.519531 " fill-opacity="1" fill-rule="nonzero"/></g><path fill="#e5e5e5" d="M 89.621094 31.042969 L 60.378906 31.042969 C 44.910156 31.042969 32.328125 43.628906 32.328125 59.09375 L 32.328125 88.335938 C 32.328125 103.804688 44.910156 116.390625 60.378906 116.390625 L 89.621094 116.390625 C 105.085938 116.390625 117.671875 103.804688 117.671875 88.335938 L 117.671875 59.09375 C 117.671875 43.628906 105.089844 31.042969 89.621094 31.042969 Z M 113.757812 88.339844 C 113.757812 101.648438 102.929688 112.476562 89.621094 112.476562 L 60.378906 112.476562 C 47.070312 112.476562 36.242188 101.648438 36.242188 88.339844 L 36.242188 59.09375 C 36.242188 45.785156 47.070312 34.957031 60.378906 34.957031 L 89.621094 34.957031 C 102.929688 34.957031 113.757812 45.785156 113.757812 59.09375 Z M 113.757812 88.339844 " fill-opacity="1" fill-rule="nonzero"/><path fill="#e5e5e5" d="M 75 49.34375 C 61.558594 49.34375 50.625 60.277344 50.625 73.714844 C 50.625 87.15625 61.558594 98.089844 75 98.089844 C 88.441406 98.089844 99.375 87.15625 99.375 73.714844 C 99.375 60.277344 88.441406 49.34375 75 49.34375 Z M 75 94.175781 C 63.71875 94.175781 54.539062 85 54.539062 73.714844 C 54.539062 62.433594 63.71875 53.257812 75 53.257812 C 86.28125 53.257812 95.460938 62.433594 95.460938 73.714844 C 95.460938 85 86.28125 94.175781 75 94.175781 Z M 75 94.175781 " fill-opacity="1" fill-rule="nonzero"/><path fill="#e5e5e5" d="M 96.703125 43.746094 C 92.894531 43.746094 89.792969 46.84375 89.792969 50.65625 C 89.792969 54.464844 92.894531 57.5625 96.703125 57.5625 C 100.511719 57.5625 103.613281 54.464844 103.613281 50.65625 C 103.613281 46.84375 100.511719 43.746094 96.703125 43.746094 Z M 96.703125 53.648438 C 95.050781 53.648438 93.707031 52.304688 93.707031 50.65625 C 93.707031 49.003906 95.050781 47.660156 96.703125 47.660156 C 98.355469 47.660156 99.699219 49.003906 99.699219 50.65625 C 99.699219 52.304688 98.355469 53.648438 96.703125 53.648438 Z M 96.703125 53.648438 " fill-opacity="1" fill-rule="nonzero"/></svg>

<svg xmlns="http://www.w3.org/2000/svg" width="200" viewBox="0 0 150 150" height="200" version="1.0"><defs><clipPath id="a"><path d="M1.281 0H149v147.75H1.281Zm0 0"/></clipPath></defs><g clip-path="url(#a)"><path fill="#e5e5e5" d="M75 0C34.352 0 1.285 33.07 1.285 73.715c0 40.648 33.067 73.719 73.715 73.719 40.645 0 73.715-33.07 73.715-73.72C148.715 33.07 115.645 0 75 0Zm0 143.52c-38.488 0-69.8-31.317-69.8-69.805 0-38.485 31.312-69.8 69.8-69.8s69.8 31.315 69.8 69.8c0 38.488-31.312 69.805-69.8 69.805Zm0 0"/></g><path fill="#e5e5e5" d="M89.621 31.043H60.38c-15.469 0-28.05 12.586-28.05 28.05v29.243c0 15.469 12.581 28.055 28.05 28.055H89.62c15.465 0 28.05-12.586 28.05-28.055V59.094c0-15.465-12.581-28.051-28.05-28.051Zm24.137 57.297c0 13.308-10.828 24.137-24.137 24.137H60.38c-13.309 0-24.137-10.829-24.137-24.137V59.094c0-13.309 10.828-24.137 24.137-24.137H89.62c13.309 0 24.137 10.828 24.137 24.137Zm0 0"/><path fill="#e5e5e5" d="M75 49.344c-13.441 0-24.375 10.933-24.375 24.37C50.625 87.157 61.559 98.09 75 98.09s24.375-10.934 24.375-24.375c0-13.438-10.934-24.371-24.375-24.371Zm0 44.832c-11.281 0-20.46-9.176-20.46-20.461 0-11.281 9.179-20.457 20.46-20.457s20.46 9.176 20.46 20.457c0 11.285-9.179 20.46-20.46 20.46Zm0 0"/><path fill="#e5e5e5" d="M96.703 43.746a6.918 6.918 0 0 0-6.91 6.91c0 3.809 3.102 6.907 6.91 6.907 3.809 0 6.91-3.098 6.91-6.907a6.918 6.918 0 0 0-6.91-6.91Zm0 9.902a2.998 2.998 0 0 1-2.996-2.992 3 3 0 0 1 2.996-2.996 3 3 0 0 1 2.996 2.996 2.998 2.998 0 0 1-2.996 2.992Zm0 0"/></svg>
